cg/arrows-merge-alt-v.svg

<svg viewBox="0 0 24 24" fill="none" xmlns="http://www.w3.org/2000/svg" height="1em" width="1em">
  <path d="M18 1.5033V3.5033L13 3.5033V7.6749L14.8285 5.84644L16.2427 7.26066L12 11.5033L7.75739 7.26066L9.17161 5.84644L11 7.67483V3.5033L6 3.5033V1.5033L18 1.5033Z" fill="currentColor"/>
  <path d="M18 20.4967V22.4967H6V20.4967H11V16.3251L9.17154 18.1536L7.75732 16.7393L12 12.4967L16.2426 16.7393L14.8284 18.1536L13 16.3252V20.4967H18Z" fill="currentColor"/>
</svg>

<svg viewBox="0 0 24 24" fill="none" xmlns="http://www.w3.org/2000/svg" height="1em" width="1em">
  <path d="M18 1.503v2h-5v4.172l1.829-1.829 1.414 1.415L12 11.503 7.757 7.261l1.415-1.415L11 7.675V3.503H6v-2h12Zm0 18.994v2H6v-2h5v-4.172l-1.828 1.829-1.415-1.415L12 12.497l4.243 4.242-1.415 1.415L13 16.325v4.172h5Z" fill="currentColor"/>
</svg>
